!!!PDT:	1923
!!!LANG: Non-Tone
!!!LING_GROUP: Siouan
!!!REG: Dakotas
!!!COM: Anon.
!!!OTL: Song to the Corn
!!!ODT: <1918//
!!!MPN: Behtake [Otter Woman, Mrs. Little Crow]
!!!MLC: Fort Berthold Reservation, North Dakota, United States of America
!! Song was recorded during either the summer of 1912, 1915, or 1918.
!!!AGN: monody
!!!SOCIAL_FUNCTION: Mandan Garden Songs
!!!AMT: irregular
!!!RWG: Transcribed pitches, durations, and meters are only approximate.
!! Drum not recorded.
**kern
*ICvox
*Ifemale
*clefG2
*k[b-e-]
*M2/4
*MM52
4f
=1
8b-
8cc
(12cc
12b-
12g)
=2
8.b-
16f
16g
8.f;
=3
8d
8f
16g
8.f
=4
8f
16B-
16B-
16c
8.B-
=5
8B-
8B-
16G
8.F
=6
8B-
8B-
8.B-
16G
=7
16c
8.c
(12c
12B-
12G)
=8
16B-
8B-
16F
(12G
12F
12G)
=9
16G
8F
16G
4F
=10
16F
8F
16F
4F
==
*-
!!!CNT: Mandan
!!!TXO: Mandan
!!!OCY: United States
!!!OCL: Frances Densmore
!!!YOR: Frances Densmore, "Mandan and Hidatsa Music",
!!!YOR: Bulletin 80, page 59, No. 17
!!!PPR: Smithsonian Institution, Bureau of American Ethnology
!!!PPR: Government Printing Office
!!!PDT: 1923
!!!PPP: Washington, DC, United States of America
!!!YEC: Electronic Copyright 2000 David Huron
!!!YER: August 2000
!!!YEN: United States of America
!!!ENC: David Huron
!!!RDT: August 16, 2000
!!!EEV: Release 1.0
!!!AIN: tom, vox
